packages/gestalt-icons-android/vr-theme/ic_vr_highlights_gestalt.svg

<svg width="24" height="24" viewBox="0 0 24 24" fill="none" xmlns="http://www.w3.org/2000/svg">
<path fill-rule="evenodd" clip-rule="evenodd" d="M12 0C15.3105 0 18.3078 1.34052 20.4789 3.50836L20.4916 3.52108C22.6595 5.69215 24 8.68953 24 12C24 15.2907 22.6754 18.272 20.5304 20.4399L20.4853 20.4853L20.4399 20.5304C18.272 22.6754 15.2907 24 12 24C5.37258 24 0 18.6274 0 12C0 5.37258 5.37258 0 12 0ZM11 21V21.9506C9.8041 21.8319 8.67018 21.5025 7.63587 21H11ZM11 19V17H3.33782C3.76012 17.73 4.27205 18.4017 4.85857 19H11ZM2.4578 15H11V13H2.04938C2.11785 13.6897 2.2564 14.3588 2.4578 15ZM2.04938 11H11V9H2.4578C2.2564 9.64124 2.11785 10.3103 2.04938 11ZM3.33782 7H11V5H4.85857C4.27205 5.59829 3.76012 6.26998 3.33782 7ZM7.63587 3H11V2.04938C9.8041 2.16811 8.67018 2.49753 7.63587 3Z" fill="black"/>
</svg>

<svg xmlns="http://www.w3.org/2000/svg" width="24" height="24"><path d="M12 0a12 12 0 0 1 8.48 3.5l.01.02a11.96 11.96 0 0 1 .04 16.92l-.04.05-.05.04A12 12 0 1 1 12 0M7.64 21q1.55.76 3.36.95V21zM11 19v-2H3.34q.63 1.1 1.52 2zm-8.54-4H11v-2H2.05q.1 1.04.4 2m-.41-4H11V9H2.46q-.3.96-.41 2m1.29-4H11V5H4.86q-.89.9-1.52 2m4.3-4H11v-.95q-1.8.19-3.36.95"/></svg>
